X:1
T:For God So Loved the World
T:For God So Loved the World
T:Joseph Lincoln Hall
T:Eliza Edmunds Hewitt, 1920
T:Public Domain Courtesy of the Cyber Hymnal™
T:Public Domain Courtesy of the Cyber Hymnal™
C:Joseph Lincoln Hall
Z:Public Domain
Z:Courtesy of the Cyber Hymnal™
%%score ( 1 2 ) ( 3 4 )
L:1/8
Q:1/4=110
M:6/8
K:Ab
V:1 treble 
V:2 treble 
V:3 bass 
V:4 bass 
V:1
 E | [Ac]2 [Ac] [Ad]2 [Ac] | [Gc]3 [GB]2 [Gc] | [FA]2 [FA] (AB)[Ac] | [GB]3- [GB]2 E | %5
w: 1.~A|sto- ry sweet and|won- drous, Like|heav’n- ly mu- * sic|swells; * In|
w: 2.~When,|griev- ing, brok- en-|heart- ed, Be-|cause of sin * and|shame, * We|
w: 3.~This|love be- yond all|mea- sure Of|earth or sea * or|sky, * Could|
w: 4.~Come,|bro- ther, come to|Je- sus; His|Word was meant * for|you; * His|
 [Ec]2 [Ac] [Ad]2 [Ac] | [FB][F=A][FB] [DF]2 [Fd] | ([Ec][CE])[Ec] [Ec]2 [DB] | [CA]3- [CA]2 || %9
w: chim- ings clear to|all who will hear, Ring|out * the Gos- pel|bells. *|
w: find a joy earth|can- not de- stroy, Be-|liev- * ing on His|name. *|
w: on- ly show its|full o- ver- flow, When|Je- * sus came to|die. *|
w: grace re- ceive, His|prom- ise be- lieve, And|sing * His praise a-|new. *|
"^Refrain" E | (EF)G [EA]2 [GB] | c3- [Ac]2 [Ac]/[Ac]/ | cB[^F=A] [GB][Gc][GB] | %13
w: ||||
w: For|God * so the world|That He gave His|* * on- ly be- got-|
w: ||||
w: ||||
 (AG)[=DF] E2 [CE] | [DF]2 [FA] [FB][FA][DF] | [CE][EA][GB] [Ac]3 | [GB]2 [Ac] [Bd][Ac][GB] | %17
w: ||||
w: ten * Son, * That|who- so- ev- er be-|liev- eth in Him,|Who- so- ev- er be-|
w: ||||
w: ||||
 [Ac][Ac][Bd] e3 | [=Af]3 [Ac]3 | [Bd][Bd] z4 | [Ge]3 [GB]3 | [Ac][Ac] z3 E | [DF]3 [Fe]2 [Fd] | %23
w: ||||||
w: liev- eth in Him|Should not|per- ish,|Should not|per- ish, But|have ev- er-|
w: ||||||
w: ||||||
 [Ac]3 [GB]3 | A3- A3- | [EA]3- [EA]2 |] %26
w: |||
w: last- ing|life. *||
w: |||
w: |||
V:2
 E | x6 | x6 | x3 F2 x | x5 E | x6 | x6 | x6 | x5 || E | E3- x3 | A2 A x3 | G2 x4 | E2 E2 x2 | x6 | %15
 x6 | x6 | x3 (c2 A) | x6 | x6 | x6 | x5 E | x6 | x6 | AEE F2 F | x5 |] %26
V:3
 [A,C] | [A,E]2 [A,E] [A,F]2 [A,E] | [E,E]3 [E,D]2 [E,E] | [F,C]2 [F,C] [B,=D]2 [B,D] | %4
w: ~|~ ~ ~ ~|~ ~ ~|~ ~ ~ ~|
 [E,E]3- [E,E]2 [E,D] | [A,C]2 [A,E] [A,F]2 [A,E] | [D,D][D,D][D,D] [D,A,]2 [D,A,] | %7
w: ~ * ~|~ ~ ~ ~|~ ~ ~ ~ ~|
 [E,A,]2 [E,A,] [E,G,]2 [E,G,] | [A,,A,]3- [A,,A,]2 || [A,C] | [A,C]3- [A,C]2 [E,E] | %11
w: ~ ~ ~ ~|~ *|For|God * so|
 [A,E]2 [A,E] [A,E]2 [A,E]/[A,E]/ | (ED)[E,C] [E,D][E,E][E,D] | [A,C]2 [A,=B,] [A,C]2 [A,,A,] | %14
w: loved the world ~ ~|~ * ~ ~ ~ ~|~ ~ ~ ~|
 [D,A,]2 [D,A,] [D,D][D,D][D,A,] | A,[A,C][E,E] [A,E]3 | [E,E]2 [E,E] [E,E][E,E][E,E] | %17
w: ~ ~ ~ ~ ~|~ ~ ~ ~|~ ~ ~ ~ ~|
 [A,E][A,E][A,D] [A,C]3 | [F,C]3 [F,F]3 | [B,F][B,F] z4 | [E,E]3 [E,E]3 | [A,E][A,E] z3 [A,C] | %22
w: ~ ~ ~ ~|~ ~|~ ~|~ ~|~ ~ ~|
 [D,A,]3 [C,=A,]2 [D,B,] | [E,E]3 [E,D]3 | CCC D2 D | ([A,C]3- [A,C]2) |] %26
w: ~ ~ ~|~ ~|~ ev- er- last- ing|life *|
V:4
 x | x6 | x6 | x6 | x6 | x6 | x6 | x6 | x5 || x | x6 | x6 | E,2 x4 | x6 | x6 | A, x5 | x6 | x6 | %18
 x6 | x6 | x6 | x6 | x6 | x6 | A,3- A,3- | x5 |] %26

